src/lib/packages/icons/src/assets/filled/file-import.svg

<svg width="24" height="24" viewBox="0 0 24 24" fill="none" xmlns="http://www.w3.org/2000/svg">
<path d="M17 9.75C14.58 9.75 13.25 8.42 13.25 6V3H8C6 3 5 4 5 6V18C5 20 6 21 8 21H17C19 21 20 20 20 18V9.75H17ZM14 15.75H10.811L11.531 16.47C11.824 16.763 11.824 17.238 11.531 17.531C11.385 17.677 11.193 17.751 11.001 17.751C10.809 17.751 10.6169 17.678 10.4709 17.531L8.47095 15.531C8.40195 15.462 8.34708 15.379 8.30908 15.287C8.23308 15.104 8.23308 14.897 8.30908 14.714C8.34708 14.622 8.40195 14.539 8.47095 14.47L10.4709 12.47C10.7639 12.177 11.239 12.177 11.532 12.47C11.825 12.763 11.825 13.238 11.532 13.531L10.812 14.251H14C14.414 14.251 14.75 14.587 14.75 15.001C14.75 15.415 14.414 15.75 14 15.75ZM14.75 6V3.75L19.25 8.25H17C15.42 8.25 14.75 7.58 14.75 6Z" fill="currentColor"/>
</svg>

<svg xmlns="http://www.w3.org/2000/svg" width="24" height="24" fill="none"><path fill="currentColor" d="M17 9.75c-2.42 0-3.75-1.33-3.75-3.75V3H8C6 3 5 4 5 6v12c0 2 1 3 3 3h9c2 0 3-1 3-3V9.75h-3Zm-3 6h-3.189l.72.72a.75.75 0 0 1-1.06 1.061l-2-2a.749.749 0 0 1-.162-.817.749.749 0 0 1 .162-.244l2-2a.75.75 0 0 1 1.061 1.061l-.72.72H14a.75.75 0 0 1 0 1.499ZM14.75 6V3.75l4.5 4.5H17c-1.58 0-2.25-.67-2.25-2.25Z"/></svg>
